X:3079
T:Mazurka efter Yngve Persson
O:Skörje, Blekinge
M:3/4
L:1/8
R:Mazurka
K:D
Q:150
D2 |: D2 DF AB | G2 GB Bd | A2 Ac ec | d2 fd A2 | D2 DF AB | G2 GB Bd | A2 Ac ec | d2 d4:|
a2 af df | {f} e2 !+![e2A2] !+![e2A2] | g2 ge ce | de fg a2 |a2 af df | {f} e2 !+![e2A2] !+![e2A2] | g2 ge ce |1 d6 :|2 d4 | 
(:musicend:)
(:music:)
